X: 1
T: Perry's Victory
M: 6/8
L: 1/8
R: jig
K: Gmaj
|: B2B Bcd | GAG E2 D | GBd GBd | ABA A2 d |
B2 B Bcd | GAG E2 D | GBd edB | ABA G3 :|
|: e2 e efg | ded dBA | GBd GBd | ABA A2 d |
e2 e efg | ded B2 A |GBd edB | ABA A2 G :|
